src/app/assets/icons/contract.svg

<svg width="25" height="25" viewBox="0 0 25 25" fill="none" xmlns="http://www.w3.org/2000/svg">
<path d="M6.68359 22.9824C5.85026 22.9824 5.14193 22.6908 4.55859 22.1074C3.97526 21.5241 3.68359 20.8158 3.68359 19.9824V16.9824H6.68359V2.98242H21.6836V19.9824C21.6836 20.8158 21.3919 21.5241 20.8086 22.1074C20.2253 22.6908 19.5169 22.9824 18.6836 22.9824H6.68359ZM18.6836 20.9824C18.9669 20.9824 19.2044 20.8866 19.3961 20.6949C19.5878 20.5033 19.6836 20.2658 19.6836 19.9824V4.98242H8.68359V16.9824H17.6836V19.9824C17.6836 20.2658 17.7794 20.5033 17.9711 20.6949C18.1628 20.8866 18.4003 20.9824 18.6836 20.9824ZM9.68359 9.98242V7.98242H18.6836V9.98242H9.68359ZM9.68359 12.9824V10.9824H18.6836V12.9824H9.68359ZM6.68359 20.9824H15.6836V18.9824H5.68359V19.9824C5.68359 20.2658 5.77943 20.5033 5.97109 20.6949C6.16276 20.8866 6.40026 20.9824 6.68359 20.9824ZM6.68359 20.9824H5.68359H15.6836H6.68359Z" fill="currentColor"/>
</svg>

<svg xmlns="http://www.w3.org/2000/svg" width="25" height="25" fill="none"><path fill="currentColor" d="M6.684 22.982a2.9 2.9 0 0 1-2.125-.875 2.9 2.9 0 0 1-.875-2.125v-3h3v-14h15v17q0 1.25-.875 2.125a2.9 2.9 0 0 1-2.125.875zm12-2q.424 0 .712-.287a.97.97 0 0 0 .288-.713v-15h-11v12h9v3q0 .425.287.713.288.288.713.287m-9-11v-2h9v2zm0 3v-2h9v2zm-3 8h9v-2h-10v1q0 .425.287.713.288.288.713.287m0 0h-1 10z"/></svg>
